;FLAVOR:Marlin
;TIME:8779
;Filament used: 4.56644m
;Layer height: 0.16
;MINX:62.715
;MINY:75.415
;MINZ:0.2
;MAXX:172.285
;MAXY:159.585
;MAXZ:52.52
;TARGET_MACHINE.NAME:Creality Ender-3
;Generated with Cura_SteamEngine 5.6.0
M140 S50
M105
M190 S50
M104 S200
M105
M109 S200
M82 ;absolute extrusion mode
; Ender 3 Custom Start G-code
G92 E0 ; Reset Extruder
G28 ; Home all axes
G1 Z2.0 F3000 ; Move Z Axis up little to prevent scratching of Heat Bed
G1 X0.1 Y20 Z0.3 F5000.0 ; Move to start position
G1 X0.1 Y200.0 Z0.3 F1500.0 E15 ; Draw the first line
G1 X0.4 Y200.0 Z0.3 F5000.0 ; Move to side a little
G1 X0.4 Y20 Z0.3 F1500.0 E30 ; Draw the second line
G92 E0 ; Reset Extruder
G1 Z2.0 F3000 ; Move Z Axis up little to prevent scratching of Heat Bed
G1 X5 Y20 Z0.3 F5000.0 ; Move over to prevent blob squish
G92 E0
G92 E0
G1 F2700 E-5
;LAYER_COUNT:268
;LAYER:0
M107
G0 F6000 X67.362 Y78.725 Z0.2
;TYPE:SKIRT
G1 F2700 E0
G1 F1200 X68.177 Y78.067 E0.03484
G1 X68.952 Y77.534 E0.06612
G1 X70.274 Y76.786 E0.11664
G1 X70.758 Y76.561 E0.1344
G1 X72.497 Y75.93 E0.19593
G1 X73.031 Y75.788 E0.2143
G1 X74.814 Y75.48 E0.27448
G1 X75.365 Y75.433 E0.29288
G1 X159.023 Y75.415 E3.07535
G1 X160.982 Y75.599 E3.1408
G1 X162.115 Y75.829 E3.17925
G1 X162.773 Y76.016 E3.202
G1 X164.295 Y76.589 E3.25609
G1 X164.931 Y76.894 E3.27955
G1 X166.361 Y77.738 E3.33478
G1 X166.959 Y78.168 E3.35928
G1 X167.99 Y79.046 E3.40432
G1 X168.953 Y80.037 E3.45028
G1 X169.633 Y80.877 E3.48622
G1 X170.166 Y81.652 E3.51751
G1 X170.916 Y82.98 E3.56823
G1 X171.18 Y83.56 E3.58943
G1 X171.749 Y85.147 E3.6455
G1 X171.984 Y86.063 E3.67696
G1 X172.184 Y87.257 E3.71722
G1 X172.285 Y88.675 E3.76451
G1 X172.246 Y147.131 E5.70876
G1 X172.152 Y147.987 E5.7374
G1 X171.862 Y149.44 E5.78668
G1 X171.605 Y150.325 E5.81733
G1 X171.233 Y151.314 E5.85248
G1 X170.752 Y152.334 E5.88999
G1 X170.026 Y153.563 E5.93746
G1 X169.466 Y154.34 E5.96932
G1 X168.73 Y155.209 E6.00719
G1 X167.638 Y156.275 E6.05795
G1 X166.823 Y156.933 E6.09279
G1 X166.048 Y157.466 E6.12407
G1 X164.72 Y158.216 E6.1748
G1 X164.14 Y158.48 E6.196
G1 X162.552 Y159.049 E6.2521
G1 X161.636 Y159.284 E6.28355
G1 X160.442 Y159.484 E6.32382
G1 X159.023 Y159.585 E6.37114
G1 X75.228 Y159.548 E9.15817
G1 X74.239 Y159.437 E9.19127
G1 X72.885 Y159.171 E9.23716
G1 X72.227 Y158.984 E9.25992
G1 X70.705 Y158.411 E9.31401
G1 X70.067 Y158.105 E9.33754
G1 X68.639 Y157.262 E9.3927
G1 X68.04 Y156.831 E9.41724
G1 X67.036 Y155.978 E9.46106
G1 X66 Y154.909 E9.51057
G1 X65.416 Y154.184 E9.54153
G1 X64.691 Y153.11 E9.58463
G1 X64.112 Y152.074 E9.62411
G1 X63.808 Y151.408 E9.64846
G1 X63.251 Y149.852 E9.70342
G1 X63.016 Y148.936 E9.73488
G1 X62.816 Y147.742 E9.77514
G1 X62.715 Y146.325 E9.82239
G1 X62.754 Y87.869 E11.76665
G1 X62.848 Y87.013 E11.79529
G1 X63.138 Y85.56 E11.84457
G1 X63.395 Y84.675 E11.87522
G1 X63.767 Y83.686 E11.91036
G1 X64.248 Y82.666 E11.94787
G1 X64.974 Y81.437 E11.99535
G1 X65.534 Y80.66 E12.0272
G1 X66.27 Y79.791 E12.06508
G1 X67.362 Y78.725 E12.11584
G0 F6000 X67.614 Y79.036
G1 F1200 X68.404 Y78.397 E12.14963
G1 X69.179 Y77.864 E12.18092
G1 X70.443 Y77.149 E12.22922
G1 X70.927 Y76.924 E12.24697
G1 X72.6 Y76.317 E12.30616
G1 X73.134 Y76.175 E12.32454
G1 X74.848 Y75.879 E12.38239
G1 X75.399 Y75.832 E12.40079
G1 X159.023 Y75.815 E15.18213
G1 X160.903 Y75.991 E15.24493
G1 X162.006 Y76.214 E15.28236
G1 X162.664 Y76.401 E15.30511
G1 X164.122 Y76.95 E15.35693
G1 X164.758 Y77.255 E15.38039
G1 X166.127 Y78.063 E15.43326
G1 X166.725 Y78.493 E15.45776
G1 X167.703 Y79.325 E15.50047
G1 X168.666 Y80.316 E15.54643
G1 X169.303 Y81.104 E15.58013
G1 X169.836 Y81.879 E15.61141
G1 X170.552 Y83.147 E15.65985
G1 X170.803 Y83.695 E15.67989
G1 X171.372 Y85.282 E15.73597
G1 X171.589 Y86.129 E15.76505
G1 X171.789 Y87.323 E15.80532
G1 X171.885 Y88.675 E15.8504
G1 X171.848 Y147.087 E17.79319
G1 X171.754 Y147.943 E17.82183
G1 X171.478 Y149.328 E17.8688
G1 X171.221 Y150.213 E17.89945
G1 X170.871 Y151.143 E17.9325
G1 X170.39 Y152.163 E17.97001
G1 X169.701 Y153.329 E18.01506
G1 X169.141 Y154.106 E18.04691
G1 X168.45 Y154.923 E18.0825
G1 X167.386 Y155.964 E18.13201
G1 X166.596 Y156.603 E18.16581
G1 X165.821 Y157.136 E18.19709
G1 X164.553 Y157.852 E18.24552
G1 X164.005 Y158.103 E18.26557
G1 X162.417 Y158.672 E18.32168
G1 X161.57 Y158.889 E18.35076
G1 X160.376 Y159.089 E18.39102
G1 X159.023 Y159.185 E18.43614
G1 X75.272 Y159.15 E21.22171
G1 X74.316 Y159.044 E21.2537
G1 X72.994 Y158.786 E21.2985
G1 X72.336 Y158.599 E21.32125
G1 X70.878 Y158.05 E21.37307
G1 X70.24 Y157.744 E21.3966
G1 X68.873 Y156.937 E21.4494
G1 X68.274 Y156.506 E21.47394
G1 X67.295 Y155.673 E21.5167
G1 X66.311 Y154.658 E21.56372
G1 X65.748 Y153.96 E21.59354
G1 X65.023 Y152.886 E21.63664
G1 X64.476 Y151.907 E21.67394
G1 X64.185 Y151.273 E21.69714
G1 X63.628 Y149.717 E21.75211
G1 X63.411 Y148.87 E21.78119
G1 X63.211 Y147.676 E21.82146
G1 X63.115 Y146.325 E21.86651
G1 X63.152 Y87.913 E23.8093
G1 X63.246 Y87.057 E23.83794
G1 X63.522 Y85.672 E23.88491
G1 X63.779 Y84.787 E23.91556
G1 X64.129 Y83.857 E23.94861
G1 X64.61 Y82.837 E23.98612
G1 X65.299 Y81.671 E24.03116
G1 X65.859 Y80.894 E24.06302
G1 X66.55 Y80.077 E24.09861
G1 X67.614 Y79.036 E24.14812
G0 F6000 X67.894 Y79.322
G1 F1200 X68.631 Y78.727 E24.17962
G1 X69.406 Y78.194 E24.21091
G1 X70.612 Y77.512 E24.25699
G1 X71.096 Y77.287 E24.27474
G1 X72.703 Y76.704 E24.3316
G1 X73.237 Y76.562 E24.34998
G1 X74.882 Y76.278 E24.4055
G1 X75.433 Y76.231 E24.42389
G1 X159.023 Y76.215 E27.20411
G1 X160.824 Y76.383 E27.26427
G1 X161.897 Y76.599 E27.30067
G1 X162.555 Y76.786 E27.32342
G1 X163.949 Y77.311 E27.37297
G1 X164.585 Y77.616 E27.39643
G1 X165.893 Y78.388 E27.44694
G1 X166.491 Y78.818 E27.47144
G1 X167.416 Y79.604 E27.51182
G1 X168.379 Y80.595 E27.55778
G1 X168.973 Y81.331 E27.58923
G1 X169.506 Y82.106 E27.62052
G1 X170.188 Y83.314 E27.66666
G1 X170.439 Y83.862 E27.6867
G1 X170.985 Y85.382 E27.74042
G1 X171.194 Y86.195 E27.76834
G1 X171.394 Y87.389 E27.80861
G1 X171.485 Y88.675 E27.85149
G1 X171.45 Y147.043 E29.79281
G1 X171.356 Y147.899 E29.82146
G1 X171.094 Y149.216 E29.86612
G1 X170.837 Y150.101 E29.89677
G1 X170.509 Y150.972 E29.92773
G1 X170.028 Y151.992 E29.96523
G1 X169.376 Y153.095 E30.00785
G1 X168.816 Y153.872 E30.03971
G1 X168.17 Y154.637 E30.07301
G1 X167.106 Y155.678 E30.12252
G1 X166.369 Y156.273 E30.15402
G1 X165.594 Y156.806 E30.18531
G1 X164.386 Y157.488 E30.23144
G1 X163.838 Y157.739 E30.25149
G1 X162.318 Y158.285 E30.30521
G1 X161.504 Y158.494 E30.33316
G1 X160.31 Y158.694 E30.37343
G1 X159.023 Y158.785 E30.41634
G1 X75.272 Y158.75 E33.20191
G1 X74.392 Y158.651 E33.23136
G1 X73.103 Y158.401 E33.27503
G1 X72.445 Y158.214 E33.29779
G1 X71.051 Y157.689 E33.34733
G1 X70.413 Y157.383 E33.37086
G1 X69.107 Y156.612 E33.42131
G1 X68.508 Y156.181 E33.44585
G1 X67.582 Y155.394 E33.48627
G1 X66.622 Y154.406 E33.53209
G1 X66.08 Y153.736 E33.56075
G1 X65.355 Y152.662 E33.60385
G1 X64.825 Y151.712 E33.64003
G1 X64.561 Y151.138 E33.66105
G1 X64.015 Y149.618 E33.71476
G1 X63.806 Y148.804 E33.74272
G1 X63.606 Y147.61 E33.78298
G1 X63.515 Y146.325 E33.82583
G1 X63.55 Y87.957 E35.76716
G1 X63.644 Y87.101 E35.7958
G1 X63.906 Y85.784 E35.84046
G1 X64.163 Y84.899 E35.87111
G1 X64.491 Y84.028 E35.90207
G1 X64.972 Y83.008 E35.93958
G1 X65.624 Y81.905 E35.98219
G1 X66.184 Y81.128 E36.01405
G1 X66.83 Y80.363 E36.04735
G1 X67.894 Y79.322 E36.09686
G0 F6000 X68.146 Y79.633
G1 F1200 X68.858 Y79.057 E36.12732
G1 X69.633 Y78.524 E36.1586
G1 X70.781 Y77.875 E36.20247
G1 X71.265 Y77.65 E36.22022
G1 X72.806 Y77.091 E36.27474
G1 X73.34 Y76.949 E36.29312
G1 X74.916 Y76.677 E36.34631
G1 X75.467 Y76.63 E36.3647
G1 X159.023 Y76.615 E39.14379
G1 X160.745 Y76.775 E39.20131
G1 X161.788 Y76.984 E39.23669
G1 X162.446 Y77.171 E39.25944
G1 X163.776 Y77.672 E39.30671
G1 X164.412 Y77.977 E39.33017
G1 X165.659 Y78.713 E39.37833
G1 X166.257 Y79.143 E39.40283
G1 X167.129 Y79.883 E39.44087
G1 X168.068 Y80.847 E39.48563
G1 X168.643 Y81.558 E39.51604
G1 X169.176 Y82.333 E39.54732
G1 X169.825 Y83.481 E39.59119
G1 X170.063 Y83.998 E39.61012
G1 X170.598 Y85.482 E39.66258
G1 X170.799 Y86.261 E39.68934
G1 X170.999 Y87.455 E39.72961
G1 X171.085 Y88.675 E39.77029
G1 X171.052 Y146.999 E41.71015
G1 X170.958 Y147.855 E41.73879
G1 X170.71 Y149.105 E41.78118
G1 X170.463 Y149.96 E41.81078
G1 X170.147 Y150.801 E41.84066
G1 X169.666 Y151.821 E41.87817
G1 X169.051 Y152.861 E41.91835
G1 X168.491 Y153.638 E41.95021
G1 X167.89 Y154.351 E41.98122
G1 X166.854 Y155.367 E42.02949
G1 X166.142 Y155.943 E42.05995
G1 X165.367 Y156.476 E42.09123
G1 X164.219 Y157.125 E42.13509
G1 X163.702 Y157.363 E42.15402
G1 X162.218 Y157.898 E42.20649
G1 X161.438 Y158.099 E42.23328
G1 X160.244 Y158.299 E42.27355
G1 X159.023 Y158.385 E42.31426
G1 X75.316 Y158.352 E45.09836
G1 X74.468 Y158.258 E45.12674
G1 X73.212 Y158.016 E45.16928
G1 X72.554 Y157.829 E45.19204
G1 X71.224 Y157.328 E45.23931
G1 X70.586 Y157.022 E45.26284
G1 X69.341 Y156.287 E45.31093
G1 X68.742 Y155.856 E45.33547
G1 X67.869 Y155.115 E45.37356
G1 X66.933 Y154.154 E45.41818
G1 X66.391 Y153.484 E45.44684
G1 X65.704 Y152.467 E45.48766
G1 X65.174 Y151.517 E45.52384
G1 X64.937 Y151.002 E45.5427
G1 X64.402 Y149.518 E45.59516
G1 X64.201 Y148.738 E45.62195
G1 X64.001 Y147.544 E45.66222
G1 X63.915 Y146.325 E45.70287
G1 X63.948 Y88.001 E47.64273
G1 X64.042 Y87.145 E47.67137
G1 X64.29 Y85.895 E47.71376
G1 X64.537 Y85.04 E47.74336
G1 X64.853 Y84.199 E47.77324
G1 X65.334 Y83.179 E47.81075
G1 X65.949 Y82.139 E47.85093
G1 X66.509 Y81.362 E47.88279
G1 X67.11 Y80.649 E47.9138
G1 X68.146 Y79.633 E47.96207
G0 F6000 X68.426 Y79.919
G1 F1200 X69.085 Y79.387 E47.99024
G1 X69.86 Y78.854 E48.02152
G1 X70.95 Y78.238 E48.06316
G1 X71.434 Y78.013 E48.08091
G1 X72.909 Y77.478 E48.1331
G1 X73.443 Y77.336 E48.15148
G1 X74.95 Y77.076 E48.20234
G1 X75.501 Y77.029 E48.22073
G1 X159.023 Y77.015 E50.99869
G1 X160.667 Y77.167 E51.0536
G1 X161.679 Y77.369 E51.08792
G1 X162.337 Y77.556 E51.11068
G1 X163.603 Y78.033 E51.15567
G1 X164.239 Y78.338 E51.17913
G1 X165.425 Y79.038 E51.22494
G1 X166.023 Y79.468 E51.24944
G1 X166.842 Y80.162 E51.28514
G1 X167.781 Y81.126 E51.3299
G1 X168.313 Y81.785 E51.35807
G1 X168.846 Y82.56 E51.38935
G1 X169.462 Y83.65 E51.431
G1 X169.687 Y84.134 E51.44875
G1 X170.222 Y85.618 E51.50122
G1 X170.404 Y86.327 E51.52556
G1 X170.604 Y87.521 E51.56583
G1 X170.685 Y88.675 E51.6043
G1 X170.654 Y146.955 E53.5427
G1 X170.56 Y147.811 E53.57135
G1 X170.326 Y148.994 E53.61146
G1 X170.088 Y149.82 E53.64005
G1 X169.785 Y150.63 E53.66881
G1 X169.304 Y151.65 E53.70632
G1 X168.726 Y152.627 E53.74407
G1 X168.166 Y153.404 E53.77593
G1 X167.61 Y154.065 E53.80466
G1 X166.574 Y155.081 E53.85292
G1 X165.915 Y155.613 E53.88109
G1 X165.14 Y156.146 E53.91237
G1 X164.05 Y156.762 E53.95402
G1 X163.566 Y156.987 E53.97177
G1 X162.082 Y157.522 E54.02424
G1 X161.372 Y157.704 E54.04861
G1 X160.178 Y157.904 E54.08888
G1 X159.023 Y157.985 E54.12739
G1 X75.359 Y157.954 E56.91007
G1 X74.543 Y157.865 E56.93737
G1 X73.321 Y157.631 E56.97875
G1 X72.663 Y157.444 E57.0015
G1 X71.397 Y156.967 E57.0465
G1 X70.759 Y156.661 E57.07003
G1 X69.575 Y155.962 E57.11576
G1 X68.976 Y155.531 E57.14031
G1 X68.155 Y154.836 E57.17608
G1 X67.244 Y153.902 E57.21948
G1 X66.702 Y153.232 E57.24814
G1 X66.053 Y152.272 E57.28668
G1 X65.537 Y151.348 E57.32188
G1 X65.313 Y150.866 E57.33956
G1 X64.778 Y149.382 E57.39203
G1 X64.596 Y148.672 E57.41641
G1 X64.396 Y147.478 E57.45667
G1 X64.315 Y146.325 E57.49512
G1 X64.346 Y88.045 E59.43352
G1 X64.44 Y87.189 E59.46216
G1 X64.674 Y86.006 E59.50227
G1 X64.912 Y85.18 E59.53086
G1 X65.215 Y84.37 E59.55962
G1 X65.696 Y83.35 E59.59713
G1 X66.274 Y82.373 E59.63489
G1 X66.834 Y81.596 E59.66674
G1 X67.39 Y80.935 E59.69547
G1 X68.426 Y79.919 E59.74373
G0 F6000 X68.677 Y80.23
G1 F1200 X69.312 Y79.717 E59.77089
G1 X70.087 Y79.184 E59.80217
G1 X71.119 Y78.601 E59.84159
G1 X71.603 Y78.376 E59.85934
G1 X73.012 Y77.865 E59.90919
G1 X73.546 Y77.723 E59.92757
G1 X74.984 Y77.475 E59.97611
G1 X75.535 Y77.428 E59.9945
G1 X159.023 Y77.415 E62.77132
G1 X160.589 Y77.559 E62.82363
G1 X161.57 Y77.754 E62.85689
G1 X162.228 Y77.941 E62.87965
G1 X163.43 Y78.394 E62.92237
G1 X164.066 Y78.699 E62.94583
G1 X165.191 Y79.363 E62.98928
G1 X165.789 Y79.793 E63.01378
G1 X166.583 Y80.467 E63.04842
G1 X167.47 Y81.377 E63.09068
G1 X167.983 Y82.012 E63.11783
G1 X168.516 Y82.787 E63.14912
G1 X169.099 Y83.819 E63.18854
G1 X169.324 Y84.303 E63.20629
G1 X169.835 Y85.718 E63.25633
G1 X170.009 Y86.393 E63.27952
G1 X170.209 Y87.587 E63.31978
G1 X170.285 Y88.675 E63.35606
G1 X170.256 Y146.911 E65.29299
G1 X170.162 Y147.767 E65.32164
G1 X169.941 Y148.884 E65.35951
G1 X169.713 Y149.68 E65.38705
G1 X169.423 Y150.459 E65.41469
G1 X168.942 Y151.479 E65.4522
G1 X168.401 Y152.393 E65.48753
G1 X167.841 Y153.17 E65.51938
G1 X167.304 Y153.807 E65.54709
G1 X166.323 Y154.77 E65.59282
G1 X165.688 Y155.283 E65.61997
G1 X164.913 Y155.816 E65.65125
G1 X163.881 Y156.399 E65.69068
G1 X163.397 Y156.624 E65.70843
G1 X161.982 Y157.135 E65.75847
G1 X161.306 Y157.309 E65.78168
G1 X160.112 Y157.509 E65.82195
G1 X159.023 Y157.585 E65.85826
G1 X75.402 Y157.556 E68.6395
G1 X74.618 Y157.472 E68.66573
G1 X73.43 Y157.246 E68.70595
G1 X72.772 Y157.059 E68.7287
G1 X71.57 Y156.606 E68.77142
G1 X70.932 Y156.3 E68.79496
G1 X69.809 Y155.637 E68.83833
G1 X69.21 Y155.206 E68.86288
G1 X68.414 Y154.531 E68.89759
G1 X67.555 Y153.65 E68.93852
G1 X67.013 Y152.98 E68.96718
G1 X66.402 Y152.077 E69.00344
G1 X65.9 Y151.179 E69.03766
G1 X65.676 Y150.697 E69.05534
G1 X65.165 Y149.282 E69.10538
G1 X64.991 Y148.606 E69.12859
G1 X64.791 Y147.412 E69.16886
G1 X64.715 Y146.325 E69.2051
G1 X64.744 Y88.089 E71.14204
G1 X64.838 Y87.233 E71.17068
G1 X65.059 Y86.116 E71.20855
G1 X65.287 Y85.32 E71.23609
G1 X65.577 Y84.541 E71.26374
G1 X66.058 Y83.521 E71.30125
G1 X66.599 Y82.607 E71.33657
G1 X67.159 Y81.83 E71.36843
G1 X67.696 Y81.193 E71.39614
G1 X68.677 Y80.23 E71.44186
G0 F6000 X68.929 Y80.541
G1 F1200 X69.539 Y80.047 E71.46797
G1 X70.314 Y79.514 E71.49925
G1 X71.288 Y78.964 E71.53646
G1 X71.772 Y78.739 E71.55421
G1 X73.115 Y78.252 E71.60172
G1 X73.649 Y78.11 E71.6201
G1 X75.018 Y77.874 E71.6663
G1 X75.569 Y77.827 E71.6847
G1 X159.023 Y77.815 E74.46039
G1 X160.511 Y77.951 E74.51009
G1 X161.461 Y78.139 E74.5423
G1 X162.119 Y78.326 E74.56505
G1 X163.257 Y78.755 E74.6055
G1 X163.893 Y79.06 E74.62896
G1 X164.957 Y79.688 E74.67005
G1 X165.555 Y80.118 E74.69455
G1 X166.324 Y80.772 E74.72813
G1 X167.159 Y81.629 E74.76792
G1 X167.653 Y82.239 E74.79403
G1 X168.186 Y83.014 E74.82531
G1 X168.736 Y83.988 E74.86252
G1 X168.961 Y84.472 E74.88027
G1 X169.448 Y85.818 E74.92788
G1 X169.614 Y86.459 E74.9499
G1 X169.814 Y87.653 E74.99017
G1 X169.885 Y88.675 E75.02424
G1 X169.858 Y146.867 E76.95971
G1 X169.764 Y147.723 E76.98836
G1 X169.556 Y148.774 E77.02399
G1 X169.328 Y149.57 E77.05153
G1 X169.061 Y150.288 E77.07701
G1 X168.58 Y151.308 E77.11452
G1 X168.076 Y152.159 E77.14741
G1 X167.516 Y152.936 E77.17927
G1 X166.998 Y153.549 E77.20596
G1 X166.071 Y154.459 E77.24917
G1 X165.461 Y154.953 E77.27527
G1 X164.686 Y155.486 E77.30656
G1 X163.712 Y156.036 E77.34376
G1 X163.228 Y156.261 E77.36151
G1 X161.882 Y156.748 E77.40912
G1 X161.24 Y156.914 E77.43118
G1 X160.046 Y157.114 E77.47144
G1 X159.023 Y157.185 E77.50555
G1 X75.444 Y157.158 E80.2854
G1 X74.692 Y157.079 E80.31055
G1 X73.539 Y156.861 E80.34958
G1 X72.881 Y156.674 E80.37233
G1 X71.743 Y156.245 E80.41278
G1 X71.105 Y155.939 E80.43631
G1 X70.043 Y155.312 E80.47733
G1 X69.444 Y154.881 E80.50188
G1 X68.673 Y154.226 E80.53552
