;FLAVOR:Marlin
;TIME:8464
;Filament used: 7.03345m
;Layer height: 0.16
;MINX:59.513
;MINY:72.213
;MINZ:0.2
;MAXX:175.487
;MAXY:162.787
;MAXZ:9.48
;TARGET_MACHINE.NAME:Creality Ender-3
;Generated with Cura_SteamEngine 5.6.0
M140 S50
M105
M190 S50
M104 S200
M105
M109 S200
M82 ;absolute extrusion mode
; Ender 3 Custom Start G-code
G92 E0 ; Reset Extruder
G28 ; Home all axes
G1 Z2.0 F3000 ; Move Z Axis up little to prevent scratching of Heat Bed
G1 X0.1 Y20 Z0.3 F5000.0 ; Move to start position
G1 X0.1 Y200.0 Z0.3 F1500.0 E15 ; Draw the first line
G1 X0.4 Y200.0 Z0.3 F5000.0 ; Move to side a little
G1 X0.4 Y20 Z0.3 F1500.0 E30 ; Draw the second line
G92 E0 ; Reset Extruder
G1 Z2.0 F3000 ; Move Z Axis up little to prevent scratching of Heat Bed
G1 X5 Y20 Z0.3 F5000.0 ; Move over to prevent blob squish
G92 E0
G92 E0
G1 F2700 E-5
;LAYER_COUNT:50
;LAYER:0
M107
G0 F6000 X65.213 Y76.369 Z0.2
;TYPE:SKIRT
G1 F2700 E0
G1 F1200 X65.646 Y76.003 E0.01886
G1 X66.407 Y75.415 E0.05084
G1 X66.827 Y75.119 E0.06793
G1 X67.579 Y74.638 E0.09762
G1 X68.052 Y74.361 E0.11585
G1 X68.879 Y73.926 E0.14693
G1 X69.338 Y73.71 E0.16381
G1 X70.178 Y73.358 E0.1941
G1 X70.711 Y73.161 E0.213
G1 X71.615 Y72.872 E0.24456
G1 X72.07 Y72.749 E0.26024
G1 X72.917 Y72.557 E0.28913
G1 X73.51 Y72.448 E0.30918
G1 X74.51 Y72.313 E0.34274
G1 X74.99 Y72.271 E0.35877
G1 X75.752 Y72.23 E0.38415
G1 X76.625 Y72.216 E0.41319
G1 X158.303 Y72.213 E3.12981
G1 X159.285 Y72.227 E3.16248
G1 X160.263 Y72.285 E3.19506
G1 X160.765 Y72.34 E3.21186
G1 X161.511 Y72.442 E3.2369
G1 X162.324 Y72.596 E3.26442
G1 X163.109 Y72.792 E3.29133
G1 X163.558 Y72.921 E3.30687
G1 X164.251 Y73.146 E3.3311
G1 X164.688 Y73.306 E3.34658
G1 X165.467 Y73.624 E3.37457
G1 X165.98 Y73.859 E3.39334
G1 X166.836 Y74.296 E3.4253
G1 X167.229 Y74.52 E3.44035
G1 X168.036 Y75.03 E3.4721
G1 X168.526 Y75.368 E3.4919
G1 X169.261 Y75.926 E3.52259
G1 X169.661 Y76.26 E3.53992
G1 X170.313 Y76.851 E3.56919
G1 X170.682 Y77.214 E3.58641
G1 X171.331 Y77.913 E3.61813
G1 X171.697 Y78.346 E3.63699
G1 X172.287 Y79.109 E3.66907
G1 X172.578 Y79.523 E3.6859
G1 X173.043 Y80.244 E3.71443
G1 X173.319 Y80.714 E3.73256
G1 X173.772 Y81.575 E3.76492
G1 X173.992 Y82.043 E3.78212
G1 X174.342 Y82.878 E3.81224
G1 X174.539 Y83.411 E3.83113
G1 X174.828 Y84.315 E3.8627
G1 X174.951 Y84.771 E3.87841
G1 X175.143 Y85.62 E3.90736
G1 X175.252 Y86.214 E3.92745
G1 X175.387 Y87.205 E3.96071
G1 X175.429 Y87.682 E3.97664
G1 X175.47 Y88.451 E4.00225
G1 X175.484 Y89.325 E4.03133
G1 X175.487 Y145.603 E5.90314
G1 X175.473 Y146.585 E5.9358
G1 X175.415 Y147.563 E5.96839
G1 X175.36 Y148.068 E5.98529
G1 X175.241 Y148.911 E6.0136
G1 X174.962 Y150.205 E6.05763
G1 X174.802 Y150.775 E6.07732
G1 X174.566 Y151.513 E6.10309
G1 X174.399 Y151.973 E6.11937
G1 X174.075 Y152.768 E6.14792
G1 X173.842 Y153.277 E6.16654
G1 X173.404 Y154.136 E6.19861
G1 X173.18 Y154.529 E6.21366
G1 X172.67 Y155.336 E6.24541
G1 X172.332 Y155.826 E6.26521
G1 X171.78 Y156.554 E6.29559
G1 X171.43 Y156.973 E6.31375
G1 X170.846 Y157.615 E6.34262
G1 X170.486 Y157.981 E6.35969
G1 X169.787 Y158.631 E6.39144
G1 X169.354 Y158.997 E6.4103
G1 X168.593 Y159.585 E6.44228
G1 X168.173 Y159.881 E6.45937
G1 X167.421 Y160.362 E6.48906
G1 X166.948 Y160.639 E6.50729
G1 X166.121 Y161.074 E6.53837
G1 X165.662 Y161.29 E6.55525
G1 X164.822 Y161.642 E6.58554
G1 X164.289 Y161.839 E6.60444
G1 X163.385 Y162.128 E6.636
G1 X162.93 Y162.251 E6.65168
G1 X162.083 Y162.443 E6.68057
G1 X161.49 Y162.552 E6.70062
G1 X160.49 Y162.687 E6.73418
G1 X160.01 Y162.729 E6.75021
G1 X159.248 Y162.77 E6.77559
G1 X158.375 Y162.784 E6.80463
G1 X76.697 Y162.787 E9.52125
G1 X75.715 Y162.773 E9.55391
G1 X74.737 Y162.715 E9.5865
G1 X74.235 Y162.66 E9.6033
G1 X73.489 Y162.558 E9.62834
G1 X72.676 Y162.404 E9.65586
G1 X71.891 Y162.208 E9.68277
G1 X71.442 Y162.079 E9.69831
G1 X70.736 Y161.85 E9.723
G1 X70.294 Y161.688 E9.73865
G1 X69.529 Y161.374 E9.76616
G1 X69.016 Y161.139 E9.78492
G1 X68.154 Y160.697 E9.81714
G1 X67.736 Y160.457 E9.83318
G1 X66.964 Y159.97 E9.86353
G1 X66.474 Y159.632 E9.88333
G1 X65.746 Y159.08 E9.91372
G1 X65.327 Y158.73 E9.93188
G1 X64.685 Y158.146 E9.96074
G1 X64.318 Y157.785 E9.97787
G1 X63.659 Y157.076 E10.01006
G1 X63.286 Y156.636 E10.02925
G1 X62.725 Y155.91 E10.05976
G1 X62.426 Y155.483 E10.0771
G1 X61.949 Y154.741 E10.10644
G1 X61.676 Y154.276 E10.12437
G1 X61.228 Y153.426 E10.15633
G1 X61.007 Y152.956 E10.1736
G1 X60.66 Y152.128 E10.20346
G1 X60.456 Y151.573 E10.22313
G1 X60.164 Y150.654 E10.2552
G1 X60.041 Y150.195 E10.27101
G1 X59.848 Y149.341 E10.30013
G1 X59.744 Y148.771 E10.3194
G1 X59.607 Y147.75 E10.35366
G1 X59.569 Y147.311 E10.36832
G1 X59.53 Y146.549 E10.3937
G1 X59.516 Y145.675 E10.42277
G1 X59.513 Y89.421 E12.29379
G1 X59.528 Y88.403 E12.32765
G1 X59.585 Y87.446 E12.35953
G1 X59.639 Y86.947 E12.37623
G1 X59.742 Y86.189 E12.40167
G1 X59.896 Y85.376 E12.42919
G1 X60.092 Y84.591 E12.4561
G1 X60.221 Y84.142 E12.47164
G1 X60.45 Y83.436 E12.49633
G1 X60.612 Y82.994 E12.51198
G1 X60.926 Y82.229 E12.53949
G1 X61.161 Y81.716 E12.55826
G1 X61.603 Y80.854 E12.59047
G1 X61.842 Y80.436 E12.60649
G1 X62.333 Y79.657 E12.63712
G1 X62.659 Y79.186 E12.65617
G1 X63.263 Y78.392 E12.68935
G1 X63.58 Y78.015 E12.70573
G1 X64.153 Y77.386 E12.73403
G1 X64.514 Y77.019 E12.75115
G1 X65.213 Y76.369 E12.7829
G0 F6000 X65.472 Y76.674
G1 F1200 X65.891 Y76.319 E12.80117
G1 X66.637 Y75.742 E12.83253
G1 X67.043 Y75.456 E12.84905
G1 X67.781 Y74.983 E12.87821
G1 X68.239 Y74.715 E12.89586
G1 X69.049 Y74.288 E12.92631
G1 X69.493 Y74.079 E12.94263
G1 X70.317 Y73.733 E12.97236
G1 X70.833 Y73.542 E12.99066
G1 X71.72 Y73.258 E13.02164
G1 X72.159 Y73.139 E13.03676
G1 X72.99 Y72.95 E13.06511
G1 X73.564 Y72.844 E13.08452
G1 X74.545 Y72.711 E13.11745
G1 X75.011 Y72.67 E13.13301
G1 X75.758 Y72.63 E13.15789
G1 X76.625 Y72.616 E13.18673
G1 X158.298 Y72.613 E15.90318
G1 X159.261 Y72.626 E15.93522
G1 X160.22 Y72.683 E15.96717
G1 X160.711 Y72.736 E15.9836
G1 X161.437 Y72.835 E16.00797
G1 X162.227 Y72.984 E16.0347
G1 X162.999 Y73.176 E16.06116
G1 X163.434 Y73.301 E16.07622
G1 X164.114 Y73.522 E16.1
G1 X164.537 Y73.676 E16.11497
G1 X165.301 Y73.988 E16.14242
G1 X165.798 Y74.215 E16.16059
G1 X166.638 Y74.644 E16.19196
G1 X167.031 Y74.868 E16.20701
G1 X167.809 Y75.359 E16.23761
G1 X168.284 Y75.687 E16.25681
G1 X169.019 Y76.245 E16.2875
G1 X169.393 Y76.557 E16.3037
G1 X170.033 Y77.136 E16.3324
G1 X170.389 Y77.486 E16.34901
G1 X171.026 Y78.172 E16.38014
G1 X171.381 Y78.591 E16.39841
G1 X171.96 Y79.339 E16.42987
G1 X172.242 Y79.74 E16.44618
G1 X172.698 Y80.447 E16.47416
G1 X172.965 Y80.901 E16.49168
G1 X173.41 Y81.745 E16.52341
G1 X173.623 Y82.198 E16.54006
G1 X173.967 Y83.017 E16.5696
G1 X174.158 Y83.533 E16.5879
G1 X174.442 Y84.42 E16.61888
G1 X174.561 Y84.859 E16.63401
G1 X174.75 Y85.693 E16.66245
G1 X174.856 Y86.268 E16.6819
G1 X174.989 Y87.24 E16.71453
G1 X175.03 Y87.703 E16.72999
G1 X175.07 Y88.457 E16.7551
G1 X175.084 Y89.325 E16.78398
G1 X175.087 Y145.598 E18.65562
G1 X175.074 Y146.561 E18.68766
G1 X175.017 Y147.52 E18.71961
G1 X174.964 Y148.012 E18.73607
G1 X174.845 Y148.855 E18.76438
G1 X174.577 Y150.097 E18.80664
G1 X174.421 Y150.653 E18.82585
G1 X174.19 Y151.377 E18.85113
G1 X174.029 Y151.822 E18.86687
G1 X173.711 Y152.602 E18.89488
G1 X173.486 Y153.095 E18.91291
G1 X173.056 Y153.938 E18.94438
G1 X172.832 Y154.331 E18.95943
G1 X172.341 Y155.109 E18.99003
G1 X172.013 Y155.584 E19.00922
G1 X171.461 Y156.312 E19.03961
G1 X171.134 Y156.704 E19.05659
G1 X170.561 Y157.335 E19.08494
G1 X170.214 Y157.688 E19.1014
G1 X169.528 Y158.326 E19.13256
G1 X169.109 Y158.681 E19.15083
G1 X168.363 Y159.258 E19.1822
G1 X167.957 Y159.544 E19.19871
G1 X167.219 Y160.017 E19.22787
G1 X166.761 Y160.285 E19.24552
G1 X165.951 Y160.712 E19.27597
G1 X165.507 Y160.921 E19.29229
G1 X164.683 Y161.267 E19.32202
G1 X164.167 Y161.458 E19.34032
G1 X163.28 Y161.742 E19.3713
G1 X162.841 Y161.861 E19.38642
G1 X162.01 Y162.05 E19.41477
G1 X161.436 Y162.156 E19.43418
G1 X160.455 Y162.289 E19.46711
G1 X159.989 Y162.33 E19.48267
G1 X159.242 Y162.37 E19.50755
G1 X158.375 Y162.384 E19.53639
G1 X76.702 Y162.387 E22.25284
G1 X75.739 Y162.374 E22.28488
G1 X74.78 Y162.317 E22.31683
G1 X74.289 Y162.264 E22.33326
G1 X73.563 Y162.165 E22.35763
G1 X72.773 Y162.016 E22.38436
G1 X72.001 Y161.824 E22.41082
G1 X71.566 Y161.699 E22.42588
G1 X70.873 Y161.474 E22.45011
G1 X70.446 Y161.318 E22.46523
G1 X69.695 Y161.01 E22.49223
G1 X69.198 Y160.783 E22.5104
G1 X68.353 Y160.35 E22.54198
G1 X67.949 Y160.119 E22.55746
G1 X67.191 Y159.641 E22.58727
G1 X66.716 Y159.313 E22.60646
G1 X65.988 Y158.761 E22.63685
G1 X65.596 Y158.434 E22.65383
G1 X64.965 Y157.861 E22.68218
G1 X64.611 Y157.513 E22.69869
G1 X63.964 Y156.817 E22.7303
G1 X63.603 Y156.391 E22.74887
G1 X63.042 Y155.665 E22.77938
G1 X62.762 Y155.266 E22.7956
G1 X62.294 Y154.539 E22.82435
G1 X62.03 Y154.089 E22.84171
G1 X61.59 Y153.256 E22.87304
G1 X61.376 Y152.801 E22.88976
G1 X61.029 Y151.973 E22.91962
G1 X60.837 Y151.452 E22.93809
G1 X60.55 Y150.55 E22.96957
G1 X60.431 Y150.107 E22.98483
G1 X60.242 Y149.269 E23.0134
G1 X60.138 Y148.699 E23.03267
G1 X60.006 Y147.716 E23.06566
G1 X59.968 Y147.277 E23.08032
G1 X59.93 Y146.543 E23.10476
G1 X59.916 Y145.675 E23.13364
G1 X59.913 Y89.427 E25.00445
G1 X59.927 Y88.427 E25.03772
G1 X59.983 Y87.488 E25.069
G1 X60.035 Y87.001 E25.08529
G1 X60.135 Y86.263 E25.11006
G1 X60.284 Y85.473 E25.1368
G1 X60.476 Y84.701 E25.16326
G1 X60.601 Y84.266 E25.17831
G1 X60.826 Y83.573 E25.20255
G1 X60.982 Y83.146 E25.21767
G1 X61.29 Y82.395 E25.24467
G1 X61.517 Y81.898 E25.26284
G1 X61.95 Y81.053 E25.29442
G1 X62.181 Y80.649 E25.3099
G1 X62.662 Y79.885 E25.33992
G1 X62.988 Y79.414 E25.35898
G1 X63.57 Y78.649 E25.39095
G1 X63.876 Y78.284 E25.40679
G1 X64.438 Y77.666 E25.43457
G1 X64.786 Y77.312 E25.45108
G1 X65.472 Y76.674 E25.48224
G0 F6000 X65.731 Y76.979
G1 F1200 X66.136 Y76.635 E25.49991
G1 X66.867 Y76.069 E25.53066
G1 X67.259 Y75.793 E25.54661
G1 X67.983 Y75.328 E25.57523
G1 X68.426 Y75.069 E25.5923
G1 X69.22 Y74.65 E25.62216
G1 X69.648 Y74.448 E25.6379
G1 X70.456 Y74.108 E25.66705
G1 X70.955 Y73.923 E25.68475
G1 X71.825 Y73.644 E25.71514
G1 X72.248 Y73.529 E25.72972
G1 X73.063 Y73.343 E25.75753
G1 X73.618 Y73.24 E25.7763
G1 X74.58 Y73.109 E25.80859
G1 X75.032 Y73.069 E25.82368
G1 X75.765 Y73.03 E25.8481
G1 X76.625 Y73.016 E25.87671
G1 X158.293 Y73.013 E28.59299
G1 X159.237 Y73.025 E28.6244
G1 X160.178 Y73.081 E28.65575
G1 X160.657 Y73.132 E28.67177
G1 X161.363 Y73.228 E28.69547
G1 X162.13 Y73.372 E28.72142
G1 X162.889 Y73.561 E28.74744
G1 X163.311 Y73.682 E28.76204
G1 X163.978 Y73.898 E28.78536
G1 X164.386 Y74.046 E28.79979
G1 X165.135 Y74.352 E28.82671
G1 X165.616 Y74.571 E28.84428
G1 X166.44 Y74.992 E28.87506
G1 X166.833 Y75.216 E28.89011
G1 X167.582 Y75.688 E28.91955
G1 X168.042 Y76.006 E28.93815
G1 X168.763 Y76.553 E28.96825
G1 X169.125 Y76.854 E28.98391
G1 X169.753 Y77.421 E29.01205
G1 X170.096 Y77.758 E29.02804
G1 X170.721 Y78.431 E29.05859
G1 X171.065 Y78.836 E29.07627
G1 X171.633 Y79.569 E29.10711
G1 X171.906 Y79.957 E29.12289
G1 X172.353 Y80.65 E29.15032
G1 X172.611 Y81.088 E29.16722
G1 X173.048 Y81.916 E29.19836
G1 X173.254 Y82.353 E29.21443
G1 X173.592 Y83.156 E29.24341
G1 X173.777 Y83.655 E29.26111
G1 X174.056 Y84.525 E29.2915
G1 X174.171 Y84.948 E29.30608
G1 X174.357 Y85.766 E29.33398
G1 X174.46 Y86.322 E29.35279
G1 X174.591 Y87.275 E29.38478
G1 X174.631 Y87.724 E29.39977
G1 X174.67 Y88.463 E29.42439
G1 X174.684 Y89.325 E29.45306
G1 X174.687 Y145.593 E31.32454
G1 X174.675 Y146.537 E31.35594
G1 X174.619 Y147.478 E31.3873
G1 X174.568 Y147.957 E31.40332
G1 X174.454 Y148.771 E31.43066
G1 X174.192 Y149.989 E31.47209
G1 X174.04 Y150.532 E31.49085
G1 X173.814 Y151.241 E31.5156
G1 X173.659 Y151.671 E31.5308
G1 X173.347 Y152.436 E31.55828
G1 X173.13 Y152.913 E31.57571
G1 X172.708 Y153.74 E31.60659
G1 X172.484 Y154.133 E31.62163
G1 X172.012 Y154.882 E31.65108
G1 X171.694 Y155.342 E31.66968
G1 X171.142 Y156.07 E31.70007
G1 X170.838 Y156.435 E31.71587
G1 X170.276 Y157.055 E31.7437
G1 X169.942 Y157.395 E31.75955
G1 X169.269 Y158.021 E31.79012
G1 X168.864 Y158.365 E31.80779
G1 X168.133 Y158.931 E31.83854
G1 X167.741 Y159.207 E31.85449
G1 X167.017 Y159.672 E31.88311
G1 X166.574 Y159.931 E31.90018
G1 X165.78 Y160.35 E31.93004
G1 X165.352 Y160.552 E31.94578
G1 X164.544 Y160.892 E31.97493
G1 X164.045 Y161.077 E31.99263
G1 X163.175 Y161.356 E32.02302
G1 X162.752 Y161.471 E32.0376
G1 X161.937 Y161.657 E32.06541
G1 X161.382 Y161.76 E32.08418
G1 X160.42 Y161.891 E32.11647
G1 X159.968 Y161.931 E32.13156
G1 X159.235 Y161.97 E32.15598
G1 X158.375 Y161.984 E32.18459
G1 X76.707 Y161.987 E34.90087
G1 X75.763 Y161.975 E34.93227
G1 X74.822 Y161.919 E34.96363
G1 X74.343 Y161.868 E34.97965
G1 X73.637 Y161.772 E35.00335
G1 X72.87 Y161.628 E35.0293
G1 X72.111 Y161.439 E35.05532
G1 X71.689 Y161.318 E35.06992
G1 X71.01 Y161.098 E35.09366
G1 X70.598 Y160.948 E35.10824
G1 X69.861 Y160.646 E35.13473
G1 X69.38 Y160.427 E35.15231
G1 X68.551 Y160.003 E35.18328
G1 X68.162 Y159.781 E35.19818
G1 X67.418 Y159.312 E35.22743
G1 X66.958 Y158.994 E35.24603
G1 X66.23 Y158.442 E35.27642
G1 X65.865 Y158.138 E35.29222
G1 X65.245 Y157.576 E35.32005
G1 X64.904 Y157.241 E35.33595
G1 X64.269 Y156.558 E35.36697
G1 X63.92 Y156.146 E35.38492
G1 X63.359 Y155.42 E35.41544
G1 X63.089 Y155.036 E35.43105
G1 X62.639 Y154.336 E35.45873
G1 X62.384 Y153.902 E35.47547
G1 X61.952 Y153.085 E35.50621
G1 X61.745 Y152.646 E35.52235
G1 X61.404 Y151.834 E35.55165
G1 X61.218 Y151.331 E35.56948
G1 X60.936 Y150.446 E35.60038
G1 X60.821 Y150.019 E35.61509
G1 X60.636 Y149.197 E35.64311
G1 X60.532 Y148.627 E35.66238
G1 X60.404 Y147.681 E35.69413
G1 X60.367 Y147.256 E35.70832
G1 X60.33 Y146.537 E35.73227
G1 X60.316 Y145.675 E35.76094
G1 X60.313 Y89.432 E37.63159
G1 X60.326 Y88.451 E37.66422
G1 X60.381 Y87.53 E37.69491
G1 X60.431 Y87.055 E37.71079
G1 X60.528 Y86.337 E37.73489
G1 X60.672 Y85.57 E37.76085
G1 X60.861 Y84.811 E37.78686
G1 X60.982 Y84.389 E37.80146
G1 X61.202 Y83.71 E37.8252
G1 X61.352 Y83.298 E37.83979
G1 X61.654 Y82.561 E37.86628
G1 X61.873 Y82.08 E37.88386
G1 X62.297 Y81.251 E37.91483
G1 X62.519 Y80.862 E37.92972
G1 X62.991 Y80.113 E37.95917
G1 X63.317 Y79.642 E37.97822
G1 X63.877 Y78.906 E38.00898
G1 X64.172 Y78.553 E38.02428
G1 X64.723 Y77.946 E38.05155
G1 X65.058 Y77.605 E38.06745
G1 X65.731 Y76.979 E38.09802
G1 F2700 E33.09802
;MESH:mini-gps-lid-v4.stl
G0 F6000 X125.04 Y117.977
G0 X125.911 Y118.958
G0 X127.019 Y120.129
;TYPE:WALL-INNER
G1 F2700 E38.09802
G1 F1200 X127.4 Y120.195 E38.11088
G1 X127.666 Y120.216 E38.11975
G1 X128.089 Y120.197 E38.13384
G1 X128.449 Y120.125 E38.14605
G1 X128.72 Y120.018 E38.15574
G1 X128.942 Y119.883 E38.16438
G1 X129.191 Y119.67 E38.17528
G1 X129.464 Y119.28 E38.19111
G1 X129.634 Y118.883 E38.20548
G1 X129.748 Y118.469 E38.21976
G1 X129.827 Y117.924 E38.23807
G1 X129.85 Y117.254 E38.26037
G1 X129.8 Y116.608 E38.28192
G1 X129.699 Y116.114 E38.29869
G1 X129.615 Y115.836 E38.30835
G1 X129.513 Y115.574 E38.3177
G1 X129.328 Y115.232 E38.33063
G1 X129.165 Y115.006 E38.3399
G1 X128.756 Y114.639 E38.35818
G1 X128.231 Y114.451 E38.37673
G1 X127.756 Y114.42 E38.39256
G1 X127.16 Y114.468 E38.41245
G1 X126.834 Y114.609 E38.42426
G1 X126.616 Y114.741 E38.43274
G1 X126.408 Y114.913 E38.44171
G1 X126.175 Y115.185 E38.45363
G1 X125.989 Y115.503 E38.46588
G1 X125.858 Y115.79 E38.47637
G1 X125.738 Y116.2 E38.49058
G1 X125.663 Y116.566 E38.50301
G1 X125.617 Y116.947 E38.51577
G1 X125.601 Y117.398 E38.53078
G1 X125.621 Y117.917 E38.54806
G1 X125.695 Y118.388 E38.56391
G1 X125.771 Y118.688 E38.57421
G1 X125.886 Y119.024 E38.58602
G1 X126.018 Y119.281 E38.59563
G1 X126.156 Y119.502 E38.60429
G1 X126.537 Y119.9 E38.62262
G1 X127.019 Y120.129 E38.64037
G0 F6000 X127.351 Y120.593
G1 F1200 X127.652 Y120.616 E38.65041
G1 X128.138 Y120.594 E38.66659
G1 X128.494 Y120.537 E38.67858
G1 X128.898 Y120.377 E38.69303
G1 X129.177 Y120.208 E38.70388
G1 X129.489 Y119.941 E38.71754
G1 X129.815 Y119.475 E38.73646
G1 X130.012 Y119.016 E38.75307
G1 X130.141 Y118.552 E38.76909
